X: 1
T: Sitting in the Stern of a Boat
T: Mi'm shuidh'an deireadh b\`ata
C: Rev. William McLeod
B: Fraser p.66 #161; Hunter #13.
B: BSFC Tune Book IV-15
B: BSFC Session Tune Book 2016 p.84
N: Fraser says that the Rev. McLeod was minister in Bracadale (Skye) in the 1860's or 1870's.
N: Hunter says that this tune was composed as the Reverend sailed from Bracadale to his new
N: parish in Argyllshire.
R: air
Z: John Chambers <jc:trillian.mit.edu>
M: 4/4
L: 1/8
Q: "Slow"
K: G
 "(D7)"(3D/E/F/ \
| "G"G>A GF "C"E2 "G"DG | "(Em)"B>c {Bc}d>B {B}"D"A2 "C"GE \
| "G"D>E G>A "Em"B2 g/e/d/c/ | "G/D"B>c {B}"D7"~A2 {G}"G"G3 :|
y"(G7)"g \
| "C"e>^d ef "G"g3 b | "D"a>g ab {g}"Em"e2 dB \
| "G"de/f/ g>a "C"g>a g/a/g/f/ | "Am"e^d "B7"e>f {f}"Em"e3 |]
y{f}"(G7)"g \
| "C"e>d "G"Bd g2 Bb | "C"g>e "G"dB "D"A2 "C"GE \
| "G"D>E G>A "Em"B2 g/e/d/c/ | "G/D"B>c {B}"D7"A2 {G}"G"G3 |]
